X:101
T:Carn Dubil
R:Strathspey
C:James Stewart-Robertson
B:The Athole Collection
M:C|
L:1/8
K:A
e|A/A/A c>A e>Ac>A|=G>AB>c c/d/B/A/ =G>B|A/A/A c>A e>Ac>a|
=g>ed>B e<A A:|
|:e|a>ecA e>Ac>A|=G>AB>c d/c/B/A/ =G>B|1 a>ec>A e>Ac>a|
=g>ed>B e<AA:|2 A>Bc>d e>de>a|=g>e d<B e<AA||

